src/css/fonts/SVGs/iota_icons/bee_icon.svg

<svg width="48" height="48" viewBox="0 0 48 48" fill="none" xmlns="http://www.w3.org/2000/svg">
<path fill-rule="evenodd" clip-rule="evenodd" d="M27.5634 15.5739C27.5634 14.6854 26.7418 13.9693 25.8877 13.4648C26.0397 13.2795 26.2023 13.1077 26.3756 12.9563C26.9113 12.5089 27.5634 12.2852 28.2388 12.1062C28.2854 12.1062 28.332 12.0838 28.3785 12.0614C28.658 11.9048 28.7512 11.5469 28.5882 11.2784C28.4251 11.0099 28.0525 10.9205 27.773 11.0771C27.4004 11.256 27.0743 11.4798 26.7482 11.7259C26.4222 11.972 26.1427 12.2628 25.9098 12.5984C25.7713 12.8202 25.6429 13.042 25.5381 13.2702C25.2875 13.1385 25.0435 13.0257 24.8263 12.9329C24.3003 12.7081 23.7038 12.7189 23.1842 12.9572C22.9382 13.07 22.6571 13.2091 22.371 13.3713C22.2644 13.1009 22.1277 12.8367 21.9505 12.5984C21.7176 12.2628 21.4381 11.972 21.112 11.7259C20.786 11.4798 20.4366 11.2784 20.0873 11.0771C20.064 11.0659 20.0407 11.0603 20.0174 11.0547C19.9941 11.0491 19.9708 11.0435 19.9475 11.0323C19.6215 10.9428 19.3187 11.1218 19.2255 11.435C19.1324 11.7483 19.3187 12.0391 19.6448 12.1286C20.3202 12.3076 20.9723 12.5313 21.508 12.9787C21.7037 13.1496 21.8858 13.3467 22.0543 13.5598C21.2316 14.0748 20.4599 14.7717 20.4599 15.5739C20.4599 16.5211 20.9859 17.3657 21.8023 17.9151C21.4195 18.125 21.076 18.3895 20.781 18.6994C20.7597 18.6935 20.7381 18.6882 20.7161 18.6837C16.6636 17.8111 10.7247 16.782 7.20785 16.2451C5.95018 16.0661 5.2049 16.782 5.04187 17.565C4.85555 18.4599 5.29806 19.6009 6.22967 20.6524C7.23114 21.7487 8.62854 22.5765 10.1657 22.9344C10.4273 23.0006 10.6991 23.055 10.9787 23.0988C10.929 23.2795 10.9068 23.4653 10.911 23.6504C10.9343 25.2835 12.6577 26.4022 14.1716 26.4022C16.6891 26.4022 18.7288 24.8961 20.0397 23.5837C20.1986 23.9186 20.3995 24.2273 20.6368 24.5041C19.9779 25.5117 19.6214 26.8334 19.6214 28.3262C19.6214 31.5255 21.2983 36 24.0233 36C26.7482 36 28.4251 31.5255 28.3785 28.3262C28.3785 26.8454 28.0295 25.5395 27.3804 24.5379C27.6178 24.267 27.8199 23.9648 27.9813 23.6366C29.2936 24.9437 31.3157 26.4022 33.8051 26.4022C35.319 26.4022 37.0424 25.2612 37.0657 23.6504C37.0657 23.4663 37.0404 23.2814 36.9885 23.1016C37.2776 23.0573 37.5602 23.002 37.8343 22.9345C39.3715 22.5765 40.7689 21.7488 41.7703 20.6525C42.7019 19.6234 43.1444 18.46 42.9581 17.5651C42.7951 16.7597 42.0498 16.0438 40.7922 16.2451C37.2753 16.7821 31.3597 17.8112 27.2839 18.6837C27.2747 18.6857 27.2655 18.6877 27.2564 18.6899C26.9617 18.3822 26.619 18.1197 26.2375 17.9114C27.0543 17.3582 27.5767 16.5101 27.5634 15.5739ZM25.9272 25.6053C25.3573 25.8595 24.714 25.9995 24.0233 25.9995C23.3136 25.9995 22.654 25.8517 22.0727 25.5842C21.7 26.2177 21.4852 27.0514 21.445 27.997L21.5313 28.0465C21.7927 28.1965 22.0479 28.3429 22.3231 28.4605C22.5559 28.592 22.7968 28.7003 23.0457 28.79C23.1852 28.8403 23.1783 29.0393 23.0312 29.0623C22.7459 29.1068 22.4573 29.1316 22.1601 29.1316C21.9306 29.1421 21.7011 29.1378 21.4741 29.1303C21.5401 29.8798 21.6929 30.6152 21.9002 31.2845C22.0639 31.3786 22.2261 31.4677 22.393 31.5478C22.6164 31.6686 22.8482 31.7732 23.0884 31.8618C23.2247 31.912 23.2188 32.1029 23.0752 32.1278C22.8031 32.1749 22.5238 32.2053 22.2532 32.219L22.2423 32.2195C22.7595 33.4286 23.4375 34.255 24 34.255C24.5601 34.255 25.2347 33.4356 25.7511 32.2349C25.4915 32.2087 25.2392 32.1751 24.9942 32.1302C24.8508 32.1039 24.8453 31.9122 24.982 31.863C25.222 31.7767 25.4536 31.6775 25.6769 31.5702C25.8119 31.5054 25.9438 31.4347 26.0761 31.3602C26.2952 30.6715 26.4571 29.9096 26.5257 29.1325C26.3216 29.1386 26.1157 29.141 25.9098 29.1316C25.616 29.1316 25.3221 29.1074 25.0383 29.0638C24.8912 29.0412 24.8862 28.8451 25.0266 28.7972C25.2862 28.7085 25.5323 28.6037 25.7701 28.4828C26.0227 28.3543 26.2754 28.2167 26.5341 28.0758L26.5573 28.0632C26.5238 27.1013 26.3055 26.2581 25.9272 25.6053ZM24.4392 14.5015C24.1714 14.4036 23.877 14.4094 23.6122 14.5147C23.0959 14.7201 22.2765 15.1147 22.2765 15.5515C22.2765 16.1894 23.0684 16.8044 24.0233 16.8044C24.9549 16.8044 25.77 16.3024 25.77 15.5515C25.7836 15.0697 24.9601 14.6919 24.4392 14.5015ZM24.0233 19.1311C22.5094 19.1311 21.4614 20.1827 21.4614 21.6816C21.4614 23.1806 22.5094 24.2321 24.0233 24.2321C25.5371 24.2321 26.5852 23.1806 26.5852 21.6816C26.5852 20.1827 25.5371 19.1311 24.0233 19.1311ZM37.3452 21.0552C34.5504 21.704 30.3815 20.8762 28.4251 20.4288C32.2447 19.6457 37.6247 18.7061 40.9785 18.1915C40.7921 18.9075 39.6277 20.5183 37.3452 21.0552ZM30.1253 22.9121C31.1035 23.7175 32.3844 24.4558 33.8051 24.4558C34.3408 24.4558 34.7134 24.1873 34.8998 23.9412C35.0395 23.7623 35.0395 23.628 35.0395 23.5833C35.0162 23.5609 34.8532 23.4491 34.4107 23.4267C33.0831 23.4043 31.6857 23.2253 30.1253 22.9121ZM6.99824 18.1915C7.16127 18.9074 8.32577 20.5182 10.6315 21.0551C13.403 21.7039 17.5952 20.8762 19.5516 20.4287C15.732 19.6457 10.352 18.706 6.99824 18.1915ZM13.5661 23.4266C14.8936 23.3819 16.291 23.2253 17.8514 22.9121C16.8733 23.7398 15.5923 24.4558 14.1716 24.4558C13.6592 24.4558 13.2633 24.1873 13.077 23.9412C12.9372 23.7398 12.9372 23.6056 12.9372 23.5832C12.9605 23.5385 13.1236 23.449 13.5661 23.4266Z" fill="black"/>
</svg>

<svg xmlns="http://www.w3.org/2000/svg" viewBox="0 0 48 48">
  <path fill-rule="evenodd" clip-rule="evenodd" d="M27.563 15.574c0-.889-.821-1.605-1.675-2.11.152-.184.314-.356.488-.508.535-.447 1.187-.67 1.863-.85a.34.34 0 0 0 .14-.045.565.565 0 0 0 .21-.783.616.616 0 0 0-.816-.2 6.021 6.021 0 0 0-1.025.648 3.803 3.803 0 0 0-.838.872 6.035 6.035 0 0 0-.372.672 9.903 9.903 0 0 0-.712-.337 2.028 2.028 0 0 0-1.642.024 10.73 10.73 0 0 0-.813.414 3.35 3.35 0 0 0-.42-.773 3.802 3.802 0 0 0-.839-.872 9.754 9.754 0 0 0-1.025-.649.338.338 0 0 0-.07-.022c-.023-.006-.046-.011-.07-.023a.577.577 0 0 0-.721.403c-.094.313.093.604.419.694.675.179 1.327.402 1.863.85.196.17.378.368.546.58-.822.516-1.594 1.213-1.594 2.015 0 .947.526 1.792 1.342 2.341-.383.21-.726.475-1.021.784a.975.975 0 0 0-.065-.015c-4.052-.873-9.991-1.902-13.508-2.439-1.258-.179-2.003.537-2.166 1.32-.186.895.256 2.036 1.188 3.087 1.001 1.097 2.399 1.924 3.936 2.282.261.067.533.121.813.165-.05.18-.072.366-.068.551.023 1.634 1.747 2.752 3.26 2.752 2.518 0 4.558-1.506 5.869-2.818.159.335.36.643.597.92-.66 1.008-1.016 2.33-1.016 3.822 0 3.2 1.677 7.674 4.402 7.674s4.402-4.474 4.355-7.674c0-1.48-.349-2.787-.998-3.788.238-.271.44-.573.601-.901 1.313 1.307 3.335 2.765 5.824 2.765 1.514 0 3.237-1.14 3.26-2.752 0-.184-.025-.369-.076-.548.289-.045.571-.1.845-.168 1.537-.358 2.935-1.185 3.936-2.282.932-1.029 1.374-2.192 1.188-3.087-.163-.805-.908-1.521-2.166-1.32-3.517.537-9.432 1.566-13.508 2.439l-.028.006a4.187 4.187 0 0 0-1.018-.779c.816-.553 1.339-1.4 1.325-2.337Zm-1.636 10.031a4.657 4.657 0 0 1-1.904.395c-.71 0-1.369-.148-1.95-.416-.373.634-.588 1.467-.628 2.413l.086.05c.262.15.517.296.792.413.233.132.474.24.723.33.14.05.132.25-.015.272a5.56 5.56 0 0 1-.87.07c-.23.01-.46.006-.687-.002.066.75.219 1.485.426 2.155.164.094.326.183.493.263.223.12.455.225.695.314.137.05.13.24-.013.266a6.909 6.909 0 0 1-.822.091h-.01c.517 1.21 1.195 2.036 1.757 2.036.56 0 1.235-.82 1.751-2.02a9.485 9.485 0 0 1-.757-.105c-.143-.026-.149-.218-.012-.267a7.34 7.34 0 0 0 1.094-.503c.22-.688.381-1.45.45-2.227-.204.006-.41.008-.616-.001a5.85 5.85 0 0 1-.872-.068c-.147-.023-.152-.219-.011-.267a5.7 5.7 0 0 0 .743-.314c.253-.129.505-.266.764-.407l.023-.013c-.033-.962-.252-1.805-.63-2.458ZM24.44 14.501a1.16 1.16 0 0 0-.827.014c-.516.205-1.335.6-1.335 1.037 0 .637.791 1.252 1.746 1.252.932 0 1.747-.502 1.747-1.252.014-.482-.81-.86-1.33-1.05Zm-.416 4.63c-1.514 0-2.562 1.052-2.562 2.55 0 1.5 1.048 2.551 2.562 2.551 1.514 0 2.562-1.051 2.562-2.55 0-1.5-1.048-2.55-2.562-2.55Zm13.322 1.924c-2.795.649-6.963-.179-8.92-.626 3.82-.783 9.2-1.723 12.553-2.237-.186.715-1.35 2.326-3.633 2.863Zm-7.22 1.857c.979.806 2.26 1.544 3.68 1.544.536 0 .908-.269 1.095-.515.14-.179.14-.313.14-.358-.024-.022-.187-.134-.63-.156-1.327-.023-2.724-.202-4.285-.515Zm-23.127-4.72c.163.715 1.328 2.326 3.634 2.863 2.771.649 6.963-.179 8.92-.626-3.82-.783-9.2-1.723-12.554-2.237Zm6.568 5.235a25.991 25.991 0 0 0 4.285-.515c-.978.828-2.259 1.544-3.68 1.544a1.4 1.4 0 0 1-1.094-.515c-.14-.201-.14-.335-.14-.358.024-.044.187-.134.63-.156Z"/>
</svg>
